src/16/actions/show-path-outline.svg

<svg xmlns="http://www.w3.org/2000/svg" width="16" height="16" viewBox="0 0 16 16">
 <defs>
  <style id="current-color-scheme" type="text/css">
   .ColorScheme-Text { color:#565656; } .ColorScheme-Highlight { color:#5294e2; }
  </style>
 </defs>
 <path style="fill:currentColor" class="ColorScheme-Text" d="M 11 0 L 11 1.7460938 C 10.64941 1.7286838 10.288331 1.7005344 9.9628906 1.7089844 C 8.9135906 1.7362144 7.9924406 1.8936656 7.1816406 2.1660156 C 5.5600406 2.7107256 4.4025938 3.7220844 3.6210938 4.9589844 C 2.5125937 6.7131844 2.1263875 8.8923 1.9921875 11 L 0 11 L 0 16 L 5 16 L 5 13.947266 C 9.2585 13.479336 11.90985 11.143441 13.28125 8.6816406 C 13.99636 7.3980406 14.366494 6.1048 14.496094 5 L 16 5 L 16 0 L 11 0 z M 9.9921875 2.7089844 C 10.304987 2.7008844 10.657 2.7262406 11 2.7441406 L 11 5 L 13.492188 5 C 13.364107 5.94186 13.030883 7.0755594 12.408203 8.1933594 C 11.178703 10.400459 8.8787 12.472216 5 12.916016 L 5 11 L 3.0195312 11 C 3.1533312 8.9977 3.5152869 6.9979875 4.4667969 5.4921875 C 5.1447069 4.4193875 6.0912 3.5885344 7.5 3.1152344 C 8.20441 2.8786144 9.0283875 2.7338144 9.9921875 2.7089844 z"/>
</svg>

<svg xmlns="http://www.w3.org/2000/svg" width="16" height="16"><defs><style id="current-color-scheme" type="text/css"></style></defs><path d="M11 0v1.746c-.35-.017-.712-.045-1.037-.037-1.05.027-1.97.185-2.781.457a6.611 6.611 0 0 0-3.56 2.793C2.511 6.713 2.125 8.892 1.991 11H0v5h5v-2.053c4.258-.468 6.91-2.804 8.281-5.265A10.068 10.068 0 0 0 14.496 5H16V0h-5zM9.992 2.709c.313-.008.665.017 1.008.035V5h2.492a9.235 9.235 0 0 1-1.084 3.193c-1.23 2.207-3.53 4.28-7.408 4.723V11H3.02c.133-2.002.495-4.002 1.447-5.508C5.145 4.42 6.09 3.59 7.5 3.115c.704-.236 1.528-.381 2.492-.406z" fill="currentColor" color="#565656"/></svg>
